src/lib/packages/icons/src/assets/line/message-lock.svg

<svg width="24" height="24" viewBox="0 0 24 24" fill="none" xmlns="http://www.w3.org/2000/svg">
<path d="M18 2.25H6C3.582 2.25 2.25 3.582 2.25 6V21C2.25 21.303 2.43289 21.577 2.71289 21.693C2.80589 21.732 2.903 21.75 3 21.75C3.195 21.75 3.38703 21.674 3.53003 21.53L6.31006 18.75H18C20.418 18.75 21.75 17.418 21.75 15V6C21.75 3.582 20.418 2.25 18 2.25ZM20.25 15C20.25 16.577 19.577 17.25 18 17.25H6C5.801 17.25 5.60997 17.329 5.46997 17.47L3.75 19.1899V6C3.75 4.423 4.423 3.75 6 3.75H18C19.577 3.75 20.25 4.423 20.25 6V15ZM14.5 9.37097V8.25C14.5 6.872 13.379 5.75 12 5.75C10.621 5.75 9.5 6.872 9.5 8.25V9.37097C8.707 9.62897 8.25 10.302 8.25 11.286V13.215C8.25 14.489 9.01089 15.251 10.2859 15.251H13.7141C14.9891 15.251 15.75 14.49 15.75 13.215V11.286C15.75 10.302 15.293 9.62897 14.5 9.37097ZM12 7.25C12.552 7.25 13 7.699 13 8.25V9.25H11V8.25C11 7.699 11.448 7.25 12 7.25ZM14.25 13.214C14.25 13.654 14.1551 13.75 13.7141 13.75H10.2859C9.84489 13.75 9.75 13.655 9.75 13.214V11.285C9.75 10.845 9.84489 10.749 10.2859 10.749H13.7141C14.1551 10.749 14.25 10.844 14.25 11.285V13.214Z" fill="currentColor"/>
</svg>

<svg xmlns="http://www.w3.org/2000/svg" width="24" height="24" fill="none"><path fill="currentColor" d="M18 2.25H6C3.582 2.25 2.25 3.582 2.25 6v15a.75.75 0 0 0 1.28.53l2.78-2.78H18c2.418 0 3.75-1.332 3.75-3.75V6c0-2.418-1.332-3.75-3.75-3.75ZM20.25 15c0 1.577-.673 2.25-2.25 2.25H6a.747.747 0 0 0-.53.22l-1.72 1.72V6c0-1.577.673-2.25 2.25-2.25h12c1.577 0 2.25.673 2.25 2.25v9ZM14.5 9.371V8.25c0-1.378-1.121-2.5-2.5-2.5a2.503 2.503 0 0 0-2.5 2.5v1.121c-.793.258-1.25.931-1.25 1.915v1.929c0 1.274.76 2.036 2.036 2.036h3.428c1.275 0 2.036-.761 2.036-2.036v-1.929c0-.984-.457-1.657-1.25-1.915ZM12 7.25c.552 0 1 .449 1 1v1h-2v-1c0-.551.448-1 1-1Zm2.25 5.964c0 .44-.095.536-.536.536h-3.428c-.441 0-.536-.095-.536-.536v-1.929c0-.44.095-.536.536-.536h3.428c.441 0 .536.095.536.536v1.929Z"/></svg>
